X:1
T:Title
%%score [ ( 1 2 ) ( 3 4 ) ]
L:1/8
Q:1/4=120
M:none
K:A
V:1 treble nm=" "
V:2 treble 
V:3 bass nm="Midi_74"
V:4 bass 
V:1
 A8 | c4 e4 | A8 || A8 | F4 A4 | d4 c4 | B8 || B8 | e4 c4 | d8 || B8 | c4 d4 | %12
"^Thomas Norris\n(1741-1790)" c4 B4 | A8 | %14
V:2
 E8 | E4 E4 | F8 || E8 | D4 E4 | E4 E4 | E8 || E8 | E4 F4 | F8 || E8 | E4 F4 | E4 E2 D2 | C8 | %14
V:3
 C8 | C4 B,4 | C8 || A,8 | A,4 A,4 | G,4 A,4 | G,8 || G,8 | G,4 ^A,4 | B,8 || G,8 | A,4 A,4 | %12
 A,4 G,4 | A,8 | %14
V:4
 A,,8 | A,4 G,4 | F,8 || C,8 | D,4 C,4 | B,,4 A,,4 | E,8 || E,8 | C,4 F,4 | B,,8 || E,8 | %11
 A,,4 D,4 | E,4 E,4 | [A,,E,]8 | %14

